src/assets/icons/files-folders-data,simple,database.svg

<svg width="48" height="48" viewBox="0 0 48 48" fill="none" xmlns="http://www.w3.org/2000/svg">
<rect opacity="0.2" x="5" y="5" width="38" height="38" rx="4" fill="black"/>
<g opacity="0.6">
<path d="M35 20.7333C35 22.7952 30.0751 24.4667 24 24.4667C17.9249 24.4667 13 22.7952 13 20.7333C13 18.6715 17.9249 17 24 17C30.0751 17 35 18.6715 35 20.7333Z" fill="black"/>
<path d="M35 27.2667C35 29.3285 30.0751 31 24 31C17.9249 31 13 29.3285 13 27.2667C13 25.2048 17.9249 23.5333 24 23.5333C30.0751 23.5333 35 25.2048 35 27.2667Z" fill="black"/>
<path d="M13 20.7333H35V27.2667H13V20.7333Z" fill="black"/>
</g>
<path opacity="0.2" fill-rule="evenodd" clip-rule="evenodd" d="M13.3465 28C14.5677 29.5815 18.8744 30.75 24 30.75C29.1256 30.75 33.4323 29.5815 34.6535 28C34.8797 28.293 35 28.6001 35 28.9167V35.3333C35 37.3584 30.0751 39 24 39C17.9249 39 13 37.3584 13 35.3333V28.9167C13 28.6001 13.1203 28.293 13.3465 28Z" fill="black"/>
<path d="M35 12.7333C35 14.7952 30.0751 16.4667 24 16.4667C17.9249 16.4667 13 14.7952 13 12.7333C13 10.6715 17.9249 9 24 9C30.0751 9 35 10.6715 35 12.7333Z" fill="black"/>
<path d="M35 19.2667C35 21.3285 30.0751 23 24 23C17.9249 23 13 21.3285 13 19.2667C13 17.2048 17.9249 15.5333 24 15.5333C30.0751 15.5333 35 17.2048 35 19.2667Z" fill="black"/>
<path d="M13 12.7333H35V19.2667H13V12.7333Z" fill="black"/>
</svg>

<svg xmlns="http://www.w3.org/2000/svg" width="48" height="48" fill="none" viewBox="0 0 48 48">
  <rect width="38" height="38" x="5" y="5" fill="#000" opacity=".2" rx="4"/>
  <g opacity=".6">
    <path fill="#000" d="M35 20.733c0 2.062-4.925 3.734-11 3.734s-11-1.672-11-3.734C13 18.672 17.925 17 24 17s11 1.672 11 3.733z"/>
    <path fill="#000" d="M35 27.267C35 29.328 30.075 31 24 31s-11-1.672-11-3.733c0-2.062 4.925-3.734 11-3.734s11 1.672 11 3.734z"/>
    <path fill="#000" d="M13 20.733h22v6.534H13v-6.534z"/>
  </g>
  <path fill="#000" fill-rule="evenodd" d="M13.347 28c1.22 1.581 5.527 2.75 10.653 2.75s9.432-1.169 10.654-2.75c.226.293.346.6.346.917v6.416C35 37.358 30.075 39 24 39s-11-1.642-11-3.667v-6.416c0-.317.12-.624.347-.917z" clip-rule="evenodd" opacity=".2"/>
  <path fill="#000" d="M35 12.733c0 2.062-4.925 3.734-11 3.734s-11-1.672-11-3.734C13 10.671 17.925 9 24 9s11 1.671 11 3.733z"/>
  <path fill="#000" d="M35 19.267C35 21.328 30.075 23 24 23s-11-1.672-11-3.733c0-2.062 4.925-3.734 11-3.734s11 1.672 11 3.734z"/>
  <path fill="#000" d="M13 12.733h22v6.534H13v-6.534z"/>
</svg>
